X:1
T:Duke of Perth, The
R:country dance
H:See also polka#91
O:Scotland
Z:id:hn-countrydance-1
M:2/4
L:1/8
K:G
G/A/B/c/ dB | gB dB | gB dB | aA A/c/B/A/ |
G/A/B/c/ dB | gB dB | cA d>c | BG G2 :|
|: g>a ge | a>b af | g>a ge | be ef |
g>a ge | a>b af | gd ed/c/ | BG G2 :| 

